storage/app/icons/phosphoricons/light/octagon-light.svg

<svg xmlns="http://www.w3.org/2000/svg" fill="currentColor" viewBox="0 0 256 256"><path d="M225.9 81.65 174.35 30.1a13.92 13.92 0 0 0-9.9-4.1h-72.9a13.92 13.92 0 0 0-9.9 4.1L30.1 81.65a13.92 13.92 0 0 0-4.1 9.9v72.9a13.92 13.92 0 0 0 4.1 9.9l51.55 51.55a13.92 13.92 0 0 0 9.9 4.1h72.9a13.92 13.92 0 0 0 9.9-4.1l51.55-51.55a13.92 13.92 0 0 0 4.1-9.9v-72.9a13.92 13.92 0 0 0-4.1-9.9m-7.9 82.8a2 2 0 0 1-.59 1.42l-51.55 51.54a2 2 0 0 1-1.41.59h-72.9a2 2 0 0 1-1.42-.59l-51.54-51.54a2 2 0 0 1-.59-1.42v-72.9a2 2 0 0 1 .59-1.42l51.55-51.54a2 2 0 0 1 1.41-.59h72.9a2 2 0 0 1 1.42.59l51.54 51.55a2 2 0 0 1 .59 1.41Z"/></svg>

<svg xmlns="http://www.w3.org/2000/svg" viewBox="0 0 256 256" fill="currentColor"><path d="M225.9,81.65,174.35,30.1a13.92,13.92,0,0,0-9.9-4.1H91.55a13.92,13.92,0,0,0-9.9,4.1L30.1,81.65a13.92,13.92,0,0,0-4.1,9.9v72.9a13.92,13.92,0,0,0,4.1,9.9L81.65,225.9a13.92,13.92,0,0,0,9.9,4.1h72.9a13.92,13.92,0,0,0,9.9-4.1l51.55-51.55a13.92,13.92,0,0,0,4.1-9.9V91.55A13.92,13.92,0,0,0,225.9,81.65Zm-7.9,82.8a2,2,0,0,1-.59,1.42l-51.55,51.54a2,2,0,0,1-1.41.59H91.55a2,2,0,0,1-1.42-.59L38.59,165.87a2,2,0,0,1-.59-1.42V91.55a2,2,0,0,1,.59-1.42L90.14,38.59A2,2,0,0,1,91.55,38h72.9a2,2,0,0,1,1.42.59l51.54,51.55a2,2,0,0,1,.59,1.41Z"/></svg>
